X:1
T:Velociter exaudi me - Vecchi
T:#
%%score [ 1 2 3 4 ]
L:1/8
Q:1/4=150
M:none
K:C
V:1 treble nm="Soprano" snm="S"
V:2 treble nm="Alto" snm="A"
V:3 treble-8 nm="Tenor" snm="T"
V:4 bass nm="Bass" snm="B"
V:1
"^Psalm 143: 7" G4 A3"^Velociter exaudi me" B c2 c2 B4 | %1
w: Ve- lo- ci- ter ex- au-|
"^Orazio Vecchi\n(1550-1605)" A4 G4 z4 z2 A2 | B3 c d2 d2 c4 B4 |[M:4/2] A4 G8 c4 | %4
w: di me, ve-|lo- ci- ter ex- au- di|me, Do- mi-|
 B4 z2 A2 B3 c d2 d2 | G4 A4 ^F4 G4- | G4 ^F4 G8 | z16 | z16 | z16 | z4 c4 c8 | z4 B4 _B8 | %12
w: ne, ve- lo- ci- ter ex-|au- di me, Do\-|* mi- ne:||||de- fe-|cit spi-|
 z4 A4 A8 | z4 G8 G4 | F16 | E8 D8 | z16 | z16 | z8 z4 c4 | c8 z4 B4 | _B4 A8 G4- | G4 ^F4 G8 | %22
w: ri- tus,|spi- ri-|tus|me- us,|||de-|fe- cit|spi- ri- tus|* me- us,|
 z4 A8 A4 | F4 (F8 E4) | D8 D8 | z2 G2 A3 B c2 c2 B4 | A4 G4 z4 z2 A2 | B3 c d2 d2 c4 B4 | %28
w: spi- ri-|tus me\- *|* us.|Ve- lo- ci- ter ex- au-|di me, ve-|lo- ci- ter ex- au- di|
 A4 G8 c4 | B4 z2 A2 B3 c d2 d2 | G4 A4 ^F4 G4- | G4 ^F4 G2 G2 B3 c | d2 B2 c4 B2 G2 G3 A | %33
w: me, Do- mi-|ne, ve- lo- ci- ter ex-|au- di me, Do\-|* mi- ne, ve- lo- ci-|ter ex- au- di, ve- lo- ci-|
 B2[Q:1/4=149] E2[Q:1/4=147] G3[Q:1/4=146] A[Q:1/4=145] B2[Q:1/4=144] B2[Q:1/4=142] c4 | %34
w: ter, ve- lo- ci- ter ex- au-|
[Q:1/4=140] G4[Q:1/4=137] G4[Q:1/4=134] E8- | %35
w: di me, Do\-|
[Q:1/4=131] E4[Q:1/4=129] E4[Q:1/4=128] !fermata!D16 |] %36
w: * mi- ne.|
V:2
 z4 z2 D2 E3 F G2 G2 | F4 E4 D8 | z2 G,2 A,3 B, C2 E2 D4- |[M:4/2] D4 E4 D2 D2 E3 F | %4
w: Ve- lo- ci- ter ex-|au- di me,|ve- lo- ci- ter ex- au\-|* di me, ve- lo- ci-|
 G2 G2 C4 G2 G2 F4 | E4 E4 D8- | D4 D4 D8 | z4 D4 D8 | z4 C4 C8 | z4 B,4 B,4 (A,4- | %10
w: ter ex- au- di, ex- au-|di me, Do\-|* mi- ne:|de- fe-|cit spi-|ri- tus me\-|
 A,2 G,2 G,8 ^F,4) | G,4 G4 G8 | z4 F4 F8 | z4 E8 D4 | D16 | ^C8 z8 | z4 A,4 A,8 | z4 G,4 G,8 | %18
w: |us, de- fe-|cit spi-|ri- tus|me-|us,|de- fe-|cit spi-|
 z4 F,4 F,4 (E,4- | E,4 ^F,4) G,4 G,4- | G,4 =F,4 _B,8 | A,8 G,8 | D12 C4 | C8 z4 C4- | %24
w: ri- tus me\-|* * us, spi\-|* ri- tus|me- us,|spi- ri-|tus me\-|
 (C4 B,4 A,8) | G,4 z2 D2 E3 F G2 G2 | F4 E4 D8 | z2 G,2 A,3 B, C2 E2 D4- | D4 E4 D2 D2 E3 F | %29
w: |us. Ve- lo- ci- ter ex-|au- di me,|ve- lo- ci- ter ex- au\-|* di me, ve- lo- ci-|
 G2 G2 C4 G2 G2 F4 | E4 E4 D6 D2 | D4 z2 A,2 B,3 C D4- | D2 D2 E3 F G2 D2 E4 | %33
w: ter ex- au- di, ex- au-|di me, Do- mi-|ne, ve- lo- ci- ter,|* ve- lo- ci- ter ex- au-|
 D2 G,4 B,3 C D2 E2 E2- | E2 E2 D4 C8- | C4 C4 !fermata!B,16 |] %36
w: di, ve- lo- ci- ter ex- au\-|* di me, Do\-|* mi- ne.|
V:3
 z8 z4 z2 G2 | A3 B c2 c2 B4 A4 | G4 z2 D2 E3 F G2 G2 |[M:4/2][K:treble-8] F4 E4 G4 z2 c2 | %4
w: Ve-|lo- ci- ter ex- au- di|me, ve- lo- ci- ter ex-|au- di me, ve-|
 d3 e f4 z2 G2 A3 B | c2 G2 c4 A4 _B4 | A6 A2 G4 B4 | B8 z4 A4 | A8 z4 G4 | G8 (F8 | E6 D2 C8) | %11
w: lo- ci- ter, ve- lo- ci-|ter ex- au- di me,|Do- mi- ne: de-|fe- cit|spi- ri-|tus me\-||
 D8 z4 G4 | d12 d4 | c8 z4 B4 | _B8 A8 | A8 z4 F4 | F8 z4 E4 | E8 z4 D4 | D8 C8- | C8 D8- | D16 | %21
w: us, de-|fe- cit|spi- ri-|tus me-|us, de-|fe- cit|spi- ri-|tus me\-|* us,||
 D8 z4 _B4- | B4 A4 A8- | A8 G8 | (^F4 G8 F4) | G4 z4 z4 z2 G2 | A3 B c2 c2 B4 A4 | %27
w: * spi\-|* ri- tus|* me\-||us. Ve-|lo- ci- ter ex- au- di|
 G4 z2 D2 E3 F G2 G2 | F4 E4 G4 z2 c2 | d3 e f4 z2 G2 A3 B | c2 G2 c4 A4 _B4 | A6 A2 G8- | G16 | %33
w: me, ve- lo- ci- ter ex-|au- di me, ve-|lo- ci- ter, ve- lo- ci-|ter ex- au- di me,|Do- mi- ne.||
 G16 | G16 | !fermata!G24 |] %36
w: |||
V:4
 z16 | z2 D,2 E,3 F, G,2 G,2 F,4 | E,4 D,4 z4 z2 G,2 |[M:4/2] A,3 B, C2 C2 B,4 A,4 | %4
w: |Ve- lo- ci- ter ex- au-|di me, ve-|lo- ci- ter ex- au- di|
 G,4 F,4 E,4 D,4 | C,8 D,8- | D,4 D,4 G,,4 G,4 | G,8 z4 F,4 | F,8 z4 E,4 | E,8 (D,8 | %10
w: me, ex- au- di|me, Do\-|* mi- ne: de-|fe- cit|spi- ri-|tus me\-|
 C,6 B,,2 A,,8) | G,,8 z8 | z16 | z16 | z16 | z8 z4 D,4 | D,8 z4 C,4 | C,8 z4 B,,4 | _B,,8 A,,8- | %19
w: |us,||||de-|fe- cit|spi- ri-|tus me\-|
 A,,8 G,,8 | z16 | z8 z4 G,4- | G,4 F,4 F,8- | F,8 C,8 | D,16 | z16 | z2 D,2 E,3 F, G,2 G,2 F,4 | %27
w: * us,||spi\-|* ri- tus|* me-|us.||Ve- lo- ci- ter ex- au-|
 E,4 D,4 z4 z2 G,2 | A,3 B, C2 C2 B,4 A,4 | G,4 F,4 E,4 D,4 | C,8 D,8- | D,4 D,4 G,,8 | %32
w: di me, ve-|lo- ci- ter ex- au- di|me, ex au- di|me, Do\-|* mi- ne,|
 z2 G,,2 C,3 D, E,2 G,2 C,4 | G,,2 C,2 E,3 F, G,2 G,2 C,4 | E,4 B,,4 C,8- | %35
w: ve- lo- ci- ter ex- au-|di, ve- lo- ci- ter ex- au-|di me, Do\-|
 C,4 C,4 !fermata!G,,16 |] %36
w: * mi- ne.|

